X: 68
T: The Haunt of the Gnomes
C:J.S.Skinner
M:C
L:1/8
R:Air
N:"Slowly and languidly"
S:Skinner - The Scottish Violinist
Z:AK/Fiddler's Companion
K:A
E2 \
| "A"EAGA "F#m"d2c2 | "Bm"F4 "B7"B2A2 \
| "E7"GAB^B c=BGF | "A"E6 "(E)"E2 \
| "A"EAGA "F#m"d2c2 | "Bm"F4 "B7"B2A2 \
| "E7"GA^A=B edFG | "A"A6 |]
c2 \
| "A"ca^de ^BcGA | "D"g4f2 z2 \
| "E7"EGBd edGd | "A"c6c2 \
| "A"ca^de "(F#m)"^BcG{B}A | "D"G4 "(Bm)"F2=F2 \
| "E7"EGBd edGB | "A"A6 |]

%%sep 1 1 500

